out/images/arrowRightBlack.svg

<svg fill="none" height="16" viewBox="0 0 18 16" width="18" xmlns="http://www.w3.org/2000/svg"><path d="m17.7071 8.70711c.3905-.39053.3905-1.02369 0-1.41422l-6.364-6.363958c-.3905-.390524-1.0236-.390524-1.41417 0-.39052.390528-.39052 1.023688 0 1.414218l5.65687 5.65685-5.65687 5.6569c-.39052.3905-.39052 1.0236 0 1.4142.39057.3905 1.02367.3905 1.41417 0zm-17.7071.29289h17v-2h-17z" fill="#000"/></svg>

<svg width="18" height="16" viewBox="0 0 18 16" fill="none" xmlns="http://www.w3.org/2000/svg">
<path d="M17.7071 8.70711C18.0976 8.31658 18.0976 7.68342 17.7071 7.29289L11.3431 0.928932C10.9526 0.538408 10.3195 0.538408 9.92893 0.928932C9.53841 1.31946 9.53841 1.95262 9.92893 2.34315L15.5858 8L9.92893 13.6569C9.53841 14.0474 9.53841 14.6805 9.92893 15.0711C10.3195 15.4616 10.9526 15.4616 11.3431 15.0711L17.7071 8.70711ZM0 9H17V7H0V9Z" fill="black"/>
</svg>
